images/profile-info-instruments-icon-5.svg

<svg width="24" height="24" viewBox="0 0 24 24" fill="none" xmlns="http://www.w3.org/2000/svg">
<g id="instruments" clip-path="url(#clip0_131_8406)">
<path id="Vector" d="M24 2.17561C24 0.974062 23.0259 0 21.8244 0H2.17561C0.974062 0 0 0.974062 0 2.17561V21.8244C0 23.0259 0.974062 24 2.17561 24H21.8244C23.0259 24 24 23.0259 24 21.8244V2.17561ZM7.99706 4.68483C8.79497 4.68483 9.46322 5.31 9.46322 6.129C9.46322 6.94861 8.79497 7.57392 7.99706 7.57392C7.19934 7.57392 6.53109 6.94861 6.53109 6.129C6.53109 5.30995 7.19934 4.68483 7.99706 4.68483ZM17.8057 18.5046C16.318 18.5046 15.6067 17.6211 15.6067 16.4133C15.6067 16.0687 15.6496 15.7018 15.7575 15.3353L16.4691 12.7913C16.5552 12.5108 16.5769 12.2524 16.5769 12.015C16.5769 11.196 16.0809 10.7 15.2832 10.7C14.2697 10.7 13.6014 11.4273 13.2565 12.8288L11.8765 18.3637H9.46186L9.89522 16.6243C9.18553 17.7902 8.1998 18.5123 6.98377 18.5123C5.51766 18.5123 4.8277 17.6677 4.8277 16.3955C4.8277 16.0725 4.87092 15.6767 4.95708 15.3102L6.05662 10.8182H4.35352L4.87097 8.90911H8.96737L7.35019 15.3239C7.24237 15.7338 7.1993 16.0738 7.1993 16.3106C7.1993 16.7208 7.40119 16.8407 7.71694 16.9119C7.90917 16.955 9.44133 16.9249 10.2756 15.0707L11.3376 10.8182H9.61275L10.1302 8.90911H13.817L13.3427 11.0765C13.9894 9.86897 15.2831 8.72166 16.5551 8.72166C17.9134 8.72166 19.0347 9.6893 19.0347 11.5435C19.0347 12.0176 18.9699 12.5338 18.7975 13.1157L18.1074 15.5943C18.0429 15.8536 17.9996 16.069 17.9996 16.263C17.9996 16.694 18.1722 16.9095 18.4957 16.9095C18.819 16.9095 19.2287 16.6717 19.7031 15.3572L20.6516 15.7235C20.091 17.6856 19.0778 18.5046 17.8057 18.5046Z" fill="#FF3366"/>
</g>
<defs>
<clipPath id="clip0_131_8406">
<rect width="24" height="24" fill="white"/>
</clipPath>
</defs>
</svg>

<svg width="24" height="24" fill="none" xmlns="http://www.w3.org/2000/svg"><g id="instruments" clip-path="url(#clip0_131_8406)"><path id="Vector" d="M24 2.176A2.176 2.176 0 0021.824 0H2.176A2.176 2.176 0 000 2.176v19.648C0 23.026.974 24 2.176 24h19.648A2.176 2.176 0 0024 21.824V2.176zM7.997 4.685c.798 0 1.466.625 1.466 1.444a1.45 1.45 0 01-1.466 1.445 1.45 1.45 0 01-1.466-1.445c0-.819.668-1.444 1.466-1.444zm9.809 13.82c-1.488 0-2.2-.884-2.2-2.092 0-.344.044-.711.152-1.078l.711-2.544a2.59 2.59 0 00.108-.776c0-.819-.496-1.315-1.294-1.315-1.013 0-1.682.727-2.026 2.129l-1.38 5.535H9.462l.433-1.74c-.71 1.166-1.695 1.888-2.911 1.888-1.466 0-2.156-.844-2.156-2.117 0-.322.043-.718.13-1.085l1.099-4.492H4.354L4.87 8.91h4.096L7.35 15.324c-.108.41-.15.75-.15.987 0 .41.201.53.517.6.192.044 1.724.014 2.559-1.84l1.062-4.253H9.613l.517-1.909h3.687l-.474 2.167c.646-1.207 1.94-2.354 3.212-2.354 1.358 0 2.48.967 2.48 2.822 0 .474-.065.99-.238 1.572l-.69 2.478c-.064.26-.107.475-.107.669 0 .431.172.646.496.646.323 0 .733-.237 1.207-1.552l.949.367c-.561 1.962-1.574 2.78-2.846 2.78z" fill="#F36"/></g><defs><clipPath id="clip0_131_8406"><path fill="#fff" d="M0 0h24v24H0z"/></clipPath></defs></svg>
